build/img/icons/preloader.svg

<svg width="382" height="499" viewBox="0 0 382 499" fill="none" xmlns="http://www.w3.org/2000/svg">
<path fill-rule="evenodd" clip-rule="evenodd" d="M182.174 498.8C164.574 497.6 149.374 496.4 133.774 487C121.974 479.9 111.774 470.4 101.774 460.9C82.5742 442.5 63.1742 422.4 55.5742 396.8C51.9573 384.819 51.119 372.263 50.2798 359.692C49.634 350.019 48.9876 340.336 47.0742 330.9C46.7742 329.5 46.3742 328 45.3742 327.1C42.6353 324.646 39.0499 323.918 35.454 323.188C32.748 322.639 30.0359 322.088 27.6742 320.8C22.4742 318 18.9742 312.9 15.8742 308.1C7.4742 294.9 0.0741999 280.7 0.2742 264.7C0.339923 259.935 0.805199 255.203 1.26903 250.485C2.21669 240.846 3.15833 231.268 0.6742 221.6C0.1742 219.7 -0.3258 217.6 0.2742 215.7C0.9742 213.4 3.1742 211.8 5.4742 211.1C8.5742 210.2 20.1742 209 21.2742 213.7C7.9742 154.5 19.0742 93.1 62.8742 48.8C66.7742 44.8 70.9742 41 75.3742 37.5C79.6742 34 84.2742 30.7 88.9742 27.7C93.6742 24.7 98.4742 21.9 103.474 19.3C108.474 16.8 113.574 14.5 118.774 12.4C123.974 10.4 129.274 8.6 134.674 7C140.074 5.5 145.474 4.2 150.974 3.1C156.474 2.1 162.074 1.3 167.574 0.8C173.174 0.3 178.774 0 184.374 0C190.174 0 195.874 0.3 201.674 0.7C205.674 1 209.674 1.3 213.774 1.7C218.774 2.2 223.674 2.8 228.574 3.5C233.774 4.2 238.874 5.1 243.974 6.2C248.374 7.2 252.774 8.3 257.074 9.8C279.574 17.9 300.274 30.8 317.274 47.7L318.274 48.7C362.074 93 373.174 154.4 359.874 213.6C360.974 208.9 372.474 210.1 375.674 211C377.974 211.7 380.174 213.3 380.874 215.6C381.474 217.5 380.974 219.6 380.474 221.5C378.057 231.17 378.976 240.75 379.902 250.392C380.354 255.107 380.808 259.837 380.874 264.6C381.074 280.6 373.674 294.8 365.274 308C362.174 312.8 358.674 317.9 353.474 320.7C351.155 321.923 348.48 322.47 345.81 323.016C342.147 323.766 338.492 324.513 335.774 327C334.674 328 334.374 329.4 334.074 330.8C332.098 340.331 331.452 350.113 330.808 359.884C329.985 372.357 329.163 384.812 325.574 396.7C317.874 422.2 298.574 442.3 279.374 460.8C269.374 470.3 259.174 479.8 247.374 486.9C231.774 496.3 216.574 497.5 198.974 498.7H182.174V498.8ZM197.874 457.5C215.874 457.5 233.474 449.9 248.074 439.5C254.874 434.7 261.074 429.2 266.574 423C266.702 422.855 266.829 422.711 266.956 422.568L267.018 422.497C272.681 416.075 276.558 411.678 272.074 403.1C268.674 396.4 263.674 391 257.974 386.1C253.344 382.169 246.197 379.993 239.997 378.106C239.099 377.833 238.222 377.566 237.374 377.3C221.974 372.4 205.774 370.1 189.574 370.3C175.574 370.5 161.574 372.7 147.974 376C140.574 377.8 133.274 379.9 126.674 383.6C118.474 388.1 113.074 394.8 108.874 403C104.455 411.643 108.331 416.042 114.06 422.543L114.374 422.9C119.874 429.1 126.074 434.6 132.874 439.4C147.574 449.8 165.174 457.4 183.074 457.4H197.874V457.5ZM231.574 356.3C224.674 353.9 217.574 352.5 210.274 351.7C203.174 350.9 196.074 350.7 189.074 350.9C175.274 351.1 161.174 352.2 148.074 356.8C135.074 361.4 122.174 368.5 110.774 376.2C109.536 377.011 108.308 377.845 107.078 378.679C102.547 381.754 98.0084 384.834 92.9743 386.8C91.3743 387.4 89.7743 387.9 88.1743 387.7C80.4743 387 74.0743 372.9 71.4743 366.8C68.8315 360.514 66.9539 353.973 65.0763 347.433C64.3253 344.816 63.5743 342.2 62.7743 339.6C60.9046 333.667 58.7117 327.838 56.521 322.015C52.6189 311.642 48.7237 301.288 46.6743 290.4C43.5743 273.9 44.7743 257 47.6743 240.5C49.9743 227.3 53.2743 214.2 57.5743 201.5C58.8409 197.7 60.4027 193.964 61.9653 190.226C65.2143 182.453 68.4666 174.673 69.0743 166.3C69.258 163.706 69.3573 161.08 69.457 158.444C69.7916 149.599 70.1304 140.644 73.6743 132.4C80.3743 116.7 98.8743 107.2 115.474 110.9C116.674 111.1 117.874 111.4 118.974 111.8C125.991 113.969 131.787 118.05 137.608 122.149C140.913 124.476 144.225 126.808 147.774 128.8C156.874 133.9 166.974 137.3 177.274 139C197.874 142.4 219.874 138.8 237.074 126.6C237.906 126.008 238.738 125.412 239.571 124.814C247.754 118.945 256.073 112.978 265.874 110.8C282.474 107.2 300.974 116.7 307.674 132.3C311.221 140.551 311.558 149.456 311.893 158.328C311.992 160.961 312.091 163.591 312.274 166.2C312.892 174.713 316.197 182.613 319.502 190.515C321.011 194.124 322.52 197.732 323.774 201.4C328.074 214.1 331.374 227.2 333.674 240.4C336.574 256.9 337.774 273.9 334.674 290.3C332.625 301.188 328.73 311.542 324.828 321.915C322.637 327.738 320.444 333.567 318.574 339.5C317.774 342.1 317.023 344.716 316.272 347.333C314.395 353.873 312.517 360.414 309.874 366.7C307.274 372.7 300.874 386.8 293.174 387.6C291.474 387.8 289.874 387.3 288.374 386.7C283.016 384.607 278.218 381.322 273.395 378.02C272.457 377.378 271.518 376.735 270.574 376.1C258.574 368.1 245.274 361.1 231.574 356.3Z" fill="black"/>
<path d="M189.274 451C189.674 451 189.974 451 190.374 450.8C191.174 450.5 191.774 449.8 192.374 449.2C200.174 440.7 206.674 431.2 211.674 420.8C212.574 419 213.774 416.5 211.674 415C210.674 414.2 209.074 414.3 207.874 414.2C202.174 413.7 196.474 414 190.774 414C183.974 414 176.974 413.6 170.174 414.2C168.874 414.3 166.974 414.3 166.074 415.5C164.874 417 166.074 419.3 166.774 420.8C169.474 426.3 172.574 431.6 175.974 436.6C177.774 439.1 179.574 441.6 181.474 444C182.474 445.2 183.474 446.4 184.474 447.5C185.374 448.5 186.174 449.7 187.274 450.4C187.374 450.5 187.474 450.5 187.574 450.6C188.074 450.9 188.674 451 189.274 451Z" fill="black"/>
<path d="M155.274 259.3C154.674 259.4 151.674 256.1 151.174 255.6C146.174 250.9 141.474 247.2 134.774 245.2C128.874 243.4 122.674 243 116.474 243C107.074 243 95.8742 244.3 88.9742 251.4C87.9742 252.4 86.9742 253.9 87.5742 255.2C88.0742 256.5 89.6742 256.9 90.9742 257.1C111.874 260.9 134.274 264.1 155.274 259.3Z" fill="black"/>
<path d="M120.974 234C126.174 234.3 131.274 235.1 136.174 237C141.174 238.9 145.974 241.5 151.174 243.1C153.974 243.9 157.974 242.8 155.974 239.1C155.174 237.6 153.674 236.8 152.174 236C142.474 230.8 131.974 226.9 121.274 224.4C115.874 223.2 110.474 222.3 104.974 221.7C102.274 221.4 99.4744 221.2 96.6744 221.2C92.5744 221.1 86.8744 219.8 84.1744 224C82.8744 226.1 82.8744 228.7 83.7744 231C84.2744 232.1 84.9744 233.1 85.9744 233.7C87.1744 234.4 88.6744 234.5 90.0744 234.6C100.274 234.9 110.774 233.4 120.974 234Z" fill="black"/>
<path d="M225.874 259.3C226.474 259.4 229.474 256.1 229.974 255.6C234.974 250.9 239.674 247.2 246.374 245.2C252.274 243.4 258.474 243 264.674 243C274.074 243 285.274 244.3 292.174 251.4C293.174 252.4 294.174 253.9 293.574 255.2C293.074 256.5 291.474 256.9 290.174 257.1C269.274 260.9 246.974 264.1 225.874 259.3Z" fill="black"/>
<path d="M260.174 234C254.974 234.3 249.874 235.1 244.974 237C239.974 238.9 235.174 241.5 229.974 243.1C227.174 243.9 223.174 242.8 225.174 239.1C225.974 237.6 227.474 236.8 228.974 236C238.674 230.8 249.174 226.9 259.874 224.4C265.274 223.2 270.674 222.3 276.174 221.7C278.874 221.4 281.674 221.2 284.474 221.2C288.574 221.1 294.274 219.8 296.974 224C298.274 226.1 298.274 228.7 297.374 231C296.874 232.1 296.174 233.1 295.174 233.7C293.974 234.4 292.474 234.5 291.074 234.6C280.874 234.9 270.374 233.4 260.174 234Z" fill="black"/>
<path d="M145.774 322.4C145.174 325.4 147.274 328.4 149.874 330C155.274 333.5 162.074 333.8 168.174 334.9C172.274 335.6 176.374 336.3 180.474 337.2C184.674 338.2 188.874 339.2 193.274 339.1C194.174 339.1 195.074 339 195.874 338.8C198.374 338.4 200.774 337.7 203.174 337.1C206.374 336.2 209.574 335.7 212.774 335.1C219.474 333.7 226.374 333.9 232.374 330.1C234.974 328.4 237.074 325.5 236.474 322.5" stroke="black" stroke-width="4" stroke-miterlimit="10"/>
<path d="M146.274 394.5C174.874 398.1 203.574 398.1 232.174 394.5" stroke="black" stroke-width="3" stroke-miterlimit="10"/>
</svg>

<svg viewBox="0 0 382 499" fill="none" xmlns="http://www.w3.org/2000/svg"><path fill-rule="evenodd" clip-rule="evenodd" d="M182.174 498.8c-17.6-1.2-32.8-2.4-48.4-11.8-11.8-7.1-22-16.6-32-26.1-19.2-18.4-38.6-38.5-46.2-64.1-3.617-11.981-4.455-24.537-5.294-37.108-.646-9.673-1.292-19.356-3.206-28.792-.3-1.4-.7-2.9-1.7-3.8-2.739-2.454-6.324-3.182-9.92-3.912-2.706-.549-5.418-1.1-7.78-2.388-5.2-2.8-8.7-7.9-11.8-12.7-8.4-13.2-15.8-27.4-15.6-43.4.066-4.765.531-9.497.995-14.215.948-9.639 1.89-19.217-.595-28.885-.5-1.9-1-4-.4-5.9.7-2.3 2.9-3.9 5.2-4.6 3.1-.9 14.7-2.1 15.8 2.6-13.3-59.2-2.2-120.6 41.6-164.9 3.9-4 8.1-7.8 12.5-11.3 4.3-3.5 8.9-6.8 13.6-9.8 4.7-3 9.5-5.8 14.5-8.4 5-2.5 10.1-4.8 15.3-6.9 5.2-2 10.5-3.8 15.9-5.4 5.4-1.5 10.8-2.8 16.3-3.9 5.5-1 11.1-1.8 16.6-2.3 5.6-.5 11.2-.8 16.8-.8 5.8 0 11.5.3 17.3.7 4 .3 8 .6 12.1 1 5 .5 9.9 1.1 14.8 1.8 5.2.7 10.3 1.6 15.4 2.7 4.4 1 8.8 2.1 13.1 3.6 22.5 8.1 43.2 21 60.2 37.9l1 1c43.8 44.3 54.9 105.7 41.6 164.9 1.1-4.7 12.6-3.5 15.8-2.6 2.3.7 4.5 2.3 5.2 4.6.6 1.9.1 4-.4 5.9-2.417 9.67-1.498 19.25-.572 28.892.452 4.715.906 9.445.972 14.208.2 16-7.2 30.2-15.6 43.4-3.1 4.8-6.6 9.9-11.8 12.7-2.319 1.223-4.994 1.77-7.664 2.316-3.663.75-7.318 1.497-10.036 3.984-1.1 1-1.4 2.4-1.7 3.8-1.976 9.531-2.622 19.313-3.266 29.084-.823 12.473-1.645 24.928-5.234 36.816-7.7 25.5-27 45.6-46.2 64.1-10 9.5-20.2 19-32 26.1-15.6 9.4-30.8 10.6-48.4 11.8h-16.8v.1zm15.7-41.3c18 0 35.6-7.6 50.2-18 6.8-4.8 13-10.3 18.5-16.5l.382-.432.062-.071c5.663-6.422 9.54-10.819 5.056-19.397-3.4-6.7-8.4-12.1-14.1-17-4.63-3.931-11.777-6.107-17.977-7.994-.898-.273-1.775-.54-2.623-.806-15.4-4.9-31.6-7.2-47.8-7-14 .2-28 2.4-41.6 5.7-7.4 1.8-14.7 3.9-21.3 7.6-8.2 4.5-13.6 11.2-17.8 19.4-4.419 8.643-.543 13.042 5.186 19.543l.314.357c5.5 6.2 11.7 11.7 18.5 16.5 14.7 10.4 32.3 18 50.2 18h14.8v.1zm33.7-101.2c-6.9-2.4-14-3.8-21.3-4.6-7.1-.8-14.2-1-21.2-.8-13.8.2-27.9 1.3-41 5.9-13 4.6-25.9 11.7-37.3 19.4-1.238.811-2.466 1.645-3.696 2.479-4.531 3.075-9.07 6.155-14.104 8.121-1.6.6-3.2 1.1-4.8.9-7.7-.7-14.1-14.8-16.7-20.9-2.642-6.286-4.52-12.827-6.398-19.367a428.893 428.893 0 00-2.302-7.833c-1.87-5.933-4.062-11.762-6.253-17.585-3.902-10.373-7.797-20.727-9.847-31.615-3.1-16.5-1.9-33.4 1-49.9 2.3-13.2 5.6-26.3 9.9-39 1.267-3.8 2.829-7.536 4.391-11.274 3.25-7.773 6.502-15.553 7.11-23.926.183-2.594.282-5.22.382-7.856.335-8.845.673-17.8 4.217-26.044 6.7-15.7 25.2-25.2 41.8-21.5 1.2.2 2.4.5 3.5.9 7.017 2.169 12.813 6.25 18.634 10.349 3.305 2.327 6.617 4.659 10.166 6.651 9.1 5.1 19.2 8.5 29.5 10.2 20.6 3.4 42.6-.2 59.8-12.4.832-.592 1.664-1.188 2.497-1.786 8.183-5.869 16.502-11.836 26.303-14.014 16.6-3.6 35.1 5.9 41.8 21.5 3.547 8.251 3.884 17.156 4.219 26.028.099 2.633.198 5.263.381 7.872.618 8.513 3.923 16.413 7.228 24.315 1.509 3.609 3.018 7.217 4.272 10.885 4.3 12.7 7.6 25.8 9.9 39 2.9 16.5 4.1 33.5 1 49.9-2.049 10.888-5.944 21.242-9.846 31.615-2.191 5.823-4.384 11.652-6.254 17.585-.8 2.6-1.551 5.216-2.302 7.833-1.877 6.54-3.755 13.081-6.398 19.367-2.6 6-9 20.1-16.7 20.9-1.7.2-3.3-.3-4.8-.9-5.358-2.093-10.156-5.378-14.979-8.68-.938-.642-1.877-1.285-2.821-1.92-12-8-25.3-15-39-19.8z" fill="#000"/><path d="M189.274 451c.4 0 .7 0 1.1-.2.8-.3 1.4-1 2-1.6 7.8-8.5 14.3-18 19.3-28.4.9-1.8 2.1-4.3 0-5.8-1-.8-2.6-.7-3.8-.8-5.7-.5-11.4-.2-17.1-.2-6.8 0-13.8-.4-20.6.2-1.3.1-3.2.1-4.1 1.3-1.2 1.5 0 3.8.7 5.3 2.7 5.5 5.8 10.8 9.2 15.8 1.8 2.5 3.6 5 5.5 7.4 1 1.2 2 2.4 3 3.5.9 1 1.7 2.2 2.8 2.9.1.1.2.1.3.2.5.3 1.1.4 1.7.4zm-34-191.7c-.6.1-3.6-3.2-4.1-3.7-5-4.7-9.7-8.4-16.4-10.4-5.9-1.8-12.1-2.2-18.3-2.2-9.4 0-20.6 1.3-27.5 8.4-1 1-2 2.5-1.4 3.8.5 1.3 2.1 1.7 3.4 1.9 20.9 3.8 43.3 7 64.3 2.2zm-34.3-25.3c5.2.3 10.3 1.1 15.2 3 5 1.9 9.8 4.5 15 6.1 2.8.8 6.8-.3 4.8-4-.8-1.5-2.3-2.3-3.8-3.1-9.7-5.2-20.2-9.1-30.9-11.6-5.4-1.2-10.8-2.1-16.3-2.7-2.7-.3-5.5-.5-8.3-.5-4.1-.1-9.8-1.4-12.5 2.8-1.3 2.1-1.3 4.7-.4 7 .5 1.1 1.2 2.1 2.2 2.7 1.2.7 2.7.8 4.1.9 10.2.3 20.7-1.2 30.9-.6zm104.9 25.3c.6.1 3.6-3.2 4.1-3.7 5-4.7 9.7-8.4 16.4-10.4 5.9-1.8 12.1-2.2 18.3-2.2 9.4 0 20.6 1.3 27.5 8.4 1 1 2 2.5 1.4 3.8-.5 1.3-2.1 1.7-3.4 1.9-20.9 3.8-43.2 7-64.3 2.2zm34.3-25.3c-5.2.3-10.3 1.1-15.2 3-5 1.9-9.8 4.5-15 6.1-2.8.8-6.8-.3-4.8-4 .8-1.5 2.3-2.3 3.8-3.1 9.7-5.2 20.2-9.1 30.9-11.6 5.4-1.2 10.8-2.1 16.3-2.7 2.7-.3 5.5-.5 8.3-.5 4.1-.1 9.8-1.4 12.5 2.8 1.3 2.1 1.3 4.7.4 7-.5 1.1-1.2 2.1-2.2 2.7-1.2.7-2.7.8-4.1.9-10.2.3-20.7-1.2-30.9-.6z" fill="#000"/><path d="M145.774 322.4c-.6 3 1.5 6 4.1 7.6 5.4 3.5 12.2 3.8 18.3 4.9 4.1.7 8.2 1.4 12.3 2.3 4.2 1 8.4 2 12.8 1.9.9 0 1.8-.1 2.6-.3 2.5-.4 4.9-1.1 7.3-1.7 3.2-.9 6.4-1.4 9.6-2 6.7-1.4 13.6-1.2 19.6-5 2.6-1.7 4.7-4.6 4.1-7.6" stroke="#000" stroke-width="4" stroke-miterlimit="10"/><path d="M146.274 394.5c28.6 3.6 57.3 3.6 85.9 0" stroke="#000" stroke-width="3" stroke-miterlimit="10"/></svg>
